; generated by Slic3r 1.2.9 on 2017-03-04 at 13:10:39

; external perimeters extrusion width = 0.50mm
; perimeters extrusion width = 0.58mm
; infill extrusion width = 0.58mm
; solid infill extrusion width = 0.58mm
; top infill extrusion width = 0.58mm

M107
M104 S205 ; set temperature
G28 ; home all axes
G1 Z5 F5000 ; lift nozzle

M109 S205 ; wait for temperature to be reached
G21 ; set units to millimeters
G90 ; use absolute coordinates
M82 ; use absolute distances for extrusion
G92 E0
G1 Z0.500 F7800.000
G1 E-2.00000 F2400.00000
G92 E0
G1 X32.271 Y33.276 F7800.000
G1 E2.00000 F2400.00000
G1 X34.033 Y31.736 E2.14774 F1800.000
G1 X36.209 Y30.875 E2.29548
G1 X37.621 Y30.729 E2.38516
G1 X72.379 Y30.729 E4.57991
G1 X74.684 Y31.126 E4.72766
G1 X76.724 Y32.271 E4.87540 F1800.000
G1 X78.264 Y34.033 E5.02314
G1 X79.125 Y36.209 E5.17088
G1 X79.271 Y37.621 E5.26056
G1 X79.271 Y72.379 E7.45531
G1 X78.874 Y74.684 E7.60305
G1 X77.729 Y76.724 E7.75079
G1 X75.967 Y78.264 E7.89854
G1 X73.791 Y79.125 E8.04628
G1 X72.379 Y79.271 E8.13596
G1 X37.621 Y79.271 E10.33071
G1 X35.316 Y78.874 E10.47845
G1 X33.276 Y77.729 E10.62619
G1 X31.736 Y75.967 E10.77393
G1 X30.875 Y73.791 E10.92167
G1 X30.729 Y72.379 E11.01135
G1 X30.729 Y37.621 E13.20611
G1 X31.126 Y35.316 E13.35385
G1 X32.235 Y33.341 E13.49685
G1 E11.49685 F2400.00000
G92 E0
G1 X70.093 Y70.093 F7800.000
G1 E2.00000 F2400.00000
G1 X39.907 Y70.093 E3.90613 F1800.000
G1 X39.907 Y39.907 E5.81225
G1 X70.093 Y39.907 E7.71838
G1 X70.093 Y70.018 E9.61977
G1 X70.986 Y70.986 F7800.000
G1 X39.014 Y70.986 E11.63864 F1800.000
G1 X39.014 Y39.014 E13.65751
G1 X70.986 Y39.014 E15.67637
G1 X70.986 Y70.911 E17.69051
G1 X71.879 Y71.879 F7800.000
G1 X38.121 Y71.879 E19.82211 F1800.000
G1 X38.121 Y38.121 E21.95372
G1 X71.879 Y38.121 E24.08533
G1 X71.879 Y71.804 E26.21220
G1 X71.446 Y71.629 F7800.000
G1 X69.544 Y40.875 F7800.000
G1 X69.125 Y40.456 E26.24994 F1800.000
G1 X67.851 Y40.456 E26.33114
G1 X69.544 Y42.149 E26.48372
G1 X69.544 Y43.423 E26.56492
G1 X66.577 Y40.456 E26.83234
G1 X65.302 Y40.456 E26.91355
G1 X69.544 Y44.698 E27.29580
G1 X69.544 Y45.972 E27.37701
G1 X64.028 Y40.456 E27.87410
G1 X62.754 Y40.456 E27.95531
G1 X69.544 Y47.246 E28.56724
G1 X69.544 Y48.520 E28.64844
G1 X61.480 Y40.456 E29.37522
G1 X60.206 Y40.456 E29.45642
G1 X69.544 Y49.794 E30.29803
G1 X69.544 Y51.068 E30.37924
G1 X58.932 Y40.456 E31.33569
G1 X57.657 Y40.456 E31.41689
G1 X69.544 Y52.342 E32.48818
G1 X69.544 Y53.617 E32.56938
G1 X56.383 Y40.456 E33.75551
G1 X55.109 Y40.456 E33.83671
G1 X69.544 Y54.891 E35.13768
G1 X69.544 Y56.165 E35.21889
G1 X53.835 Y40.456 E36.63469
G1 X52.561 Y40.456 E36.71589
G1 X69.544 Y57.439 E38.24654
G1 X69.544 Y58.713 E38.32774
G1 X51.287 Y40.456 E39.97323
G1 X50.013 Y40.456 E40.05443
G1 X69.544 Y59.987 E41.81475
G1 X69.544 Y61.262 E41.89596
G1 X48.738 Y40.456 E43.77112
G1 X47.464 Y40.456 E43.85232
G1 X69.544 Y62.536 E45.84232
G1 X69.544 Y63.810 E45.92352
G1 X46.190 Y40.456 E48.02836
G1 X44.916 Y40.456 E48.10957
G1 X69.544 Y65.084 E50.32924
G1 X69.544 Y66.358 E50.41045
G1 X43.642 Y40.456 E52.74496
G1 X42.368 Y40.456 E52.82617
G1 X69.544 Y67.632 E55.27552
G1 X69.544 Y68.907 E55.35673
G1 X41.093 Y40.456 E57.92092
G1 X40.456 Y41.093 E57.97834
G1 X68.907 Y69.544 E60.54253
G1 X67.632 Y69.544 E60.62374
G1 X40.456 Y42.368 E63.07309
G1 X40.456 Y43.642 E63.15430
G1 X66.358 Y69.544 E65.48881
G1 X65.084 Y69.544 E65.57002
G1 X40.456 Y44.916 E67.78969
G1 X40.456 Y46.190 E67.87090
G1 X63.810 Y69.544 E69.97574
G1 X62.536 Y69.544 E70.05694
G1 X40.456 Y47.464 E72.04694
G1 X40.456 Y48.738 E72.12814
G1 X61.262 Y69.544 E74.00330
G1 X59.987 Y69.544 E74.08451
G1 X40.456 Y50.013 E75.84483
G1 X40.456 Y51.287 E75.92603
G1 X58.713 Y69.544 E77.57152
G1 X57.439 Y69.544 E77.65272
G1 X40.456 Y52.561 E79.18336
G1 X40.456 Y53.835 E79.26457
G1 X56.165 Y69.544 E80.68037
G1 X54.891 Y69.544 E80.76158
G1 X40.456 Y55.109 E82.06254
G1 X40.456 Y56.383 E82.14375
G1 X53.617 Y69.544 E83.32987
G1 X52.342 Y69.544 E83.41108
G1 X40.456 Y57.658 E84.48237
G1 X40.456 Y58.932 E84.56357
G1 X51.068 Y69.544 E85.52002
G1 X49.794 Y69.544 E85.60122
G1 X40.456 Y60.206 E86.44284
G1 X40.456 Y61.480 E86.52404
G1 X48.520 Y69.544 E87.25081
G1 X47.246 Y69.544 E87.33202
G1 X40.456 Y62.754 E87.94395
G1 X40.456 Y64.028 E88.02515
G1 X45.972 Y69.544 E88.52225
G1 X44.698 Y69.544 E88.60345
G1 X40.456 Y65.302 E88.98571
G1 X40.456 Y66.577 E89.06691
G1 X43.423 Y69.544 E89.33433
G1 X42.149 Y69.544 E89.41553
G1 X40.456 Y67.851 E89.56811
G1 X40.456 Y69.125 E89.64931
G1 X40.875 Y69.544 E89.68705
M104 S200 ; set temperature
G1 Z0.900 F7800.000
G1 E87.68705 F2400.00000
G92 E0
G1 X70.960 Y70.960 F7800.000
G1 E2.00000 F2400.00000
G1 X39.040 Y70.960 E2.88668 F3600.000
G1 X39.040 Y39.040 E3.77335
G1 X70.960 Y39.040 E4.66003
G1 X70.960 Y70.885 E5.54462
G1 X71.451 Y71.451 F7800.000
G1 X38.549 Y71.451 E6.45857 F3600.000
G1 X38.549 Y38.549 E7.37252
G1 X71.451 Y38.549 E8.28647
G1 X71.451 Y71.376 E9.19833
G1 X71.904 Y71.904 F7800.000
G1 X38.096 Y71.904 E9.99065 F1800.000
G1 X38.096 Y38.096 E10.78298
G1 X71.904 Y38.096 E11.57530
G1 X71.904 Y71.829 E12.36587
G1 X71.471 Y71.654 F7800.000
G1 X70.419 Y70.667 F7800.000
G1 X70.667 Y70.419 E12.37569 F1200.000
G1 X70.667 Y69.720 E12.39521
G1 X69.720 Y70.667 E12.43264
G1 X69.022 Y70.667 E12.45217
G1 X70.667 Y69.022 E12.51721
G1 X70.667 Y68.323 E12.53674
G1 X68.323 Y70.667 E12.62939
G1 X67.625 Y70.667 E12.64892
G1 X70.667 Y67.625 E12.76919
G1 X70.667 Y66.926 E12.78872
G1 X66.926 Y70.667 E12.93660
G1 X66.227 Y70.667 E12.95613
G1 X70.667 Y66.227 E13.13163
G1 X70.667 Y65.529 E13.15116
G1 X65.529 Y70.667 E13.35427
G1 X64.830 Y70.667 E13.37380
G1 X70.667 Y64.830 E13.60453
G1 X70.667 Y64.132 E13.62405
G1 X64.132 Y70.667 E13.88240
G1 X63.433 Y70.667 E13.90192
G1 X70.667 Y63.433 E14.18788
G1 X70.667 Y62.735 E14.20741
G1 X62.735 Y70.667 E14.52098
G1 X62.036 Y70.667 E14.54051
G1 X70.667 Y62.036 E14.88170
G1 X70.667 Y61.338 E14.90122
G1 X61.338 Y70.667 E15.27002
G1 X60.639 Y70.667 E15.28955
G1 X70.667 Y60.639 E15.68597
G1 X70.667 Y59.940 E15.70549
G1 X59.940 Y70.667 E16.12952
G1 X59.242 Y70.667 E16.14905
G1 X70.667 Y59.242 E16.60070
G1 X70.667 Y58.543 E16.62022
G1 X58.543 Y70.667 E17.09948
G1 X57.845 Y70.667 E17.11901
G1 X70.667 Y57.845 E17.62588
G1 X70.667 Y57.146 E17.64541
G1 X57.146 Y70.667 E18.17990
G1 X56.448 Y70.667 E18.19942
G1 X70.667 Y56.448 E18.76153
G1 X70.667 Y55.749 E18.78105
G1 X55.749 Y70.667 E19.37077
G1 X55.050 Y70.667 E19.39030
G1 X70.667 Y55.050 E20.00763
G1 X70.667 Y54.352 E20.02715
G1 X54.352 Y70.667 E20.67210
G1 X53.653 Y70.667 E20.69163
G1 X70.667 Y53.653 E21.36419
G1 X70.667 Y52.955 E21.38371
G1 X52.955 Y70.667 E22.08389
G1 X52.256 Y70.667 E22.10341
G1 X70.667 Y52.256 E22.83120
G1 X70.667 Y51.558 E22.85073
G1 X51.558 Y70.667 E23.60613
G1 X50.859 Y70.667 E23.62566
G1 X70.667 Y50.859 E24.40868
G1 X70.667 Y50.161 E24.42821
G1 X50.161 Y70.667 E25.23884
G1 X49.462 Y70.667 E25.25837
G1 X70.667 Y49.462 E26.09661
G1 X70.667 Y48.763 E26.11614
G1 X48.763 Y70.667 E26.98200
G1 X48.065 Y70.667 E27.00153
G1 X70.667 Y48.065 E27.89500
G1 X70.667 Y47.366 E27.91453
G1 X47.366 Y70.667 E28.83562
G1 X46.668 Y70.667 E28.85515
G1 X70.667 Y46.668 E29.80385
G1 X70.667 Y45.969 E29.82338
G1 X45.969 Y70.667 E30.79970
G1 X45.271 Y70.667 E30.81922
G1 X70.667 Y45.271 E31.82316
G1 X70.667 Y44.572 E31.84268
G1 X44.572 Y70.667 E32.87423
G1 X43.874 Y70.667 E32.89376
G1 X70.667 Y43.874 E33.95292
G1 X70.667 Y43.175 E33.97245
G1 X43.175 Y70.667 E35.05923
G1 X42.476 Y70.667 E35.07875
G1 X70.667 Y42.476 E36.19314
G1 X70.667 Y41.778 E36.21267
G1 X41.778 Y70.667 E37.35468
G1 X41.079 Y70.667 E37.37420
G1 X70.667 Y41.079 E38.54382
G1 X70.667 Y40.381 E38.56335
G1 X40.381 Y70.667 E39.76059
G1 X39.682 Y70.667 E39.78011
G1 X70.667 Y39.682 E41.00496
G1 X70.318 Y39.333 E41.01877
G1 X39.333 Y70.318 E42.24362
G1 X39.333 Y69.619 E42.26314
G1 X69.619 Y39.333 E43.46037
G1 X68.921 Y39.333 E43.47990
G1 X39.333 Y68.921 E44.64952
G1 X39.333 Y68.222 E44.66904
G1 X68.222 Y39.333 E45.81104
G1 X67.524 Y39.333 E45.83057
G1 X39.333 Y67.524 E46.94496
G1 X39.333 Y66.825 E46.96448
G1 X66.825 Y39.333 E48.05126
G1 X66.126 Y39.333 E48.07078
G1 X39.333 Y66.126 E49.12994
G1 X39.333 Y65.428 E49.14947
G1 X65.428 Y39.333 E50.18101
G1 X64.729 Y39.333 E50.20054
G1 X39.333 Y64.729 E51.20447
G1 X39.333 Y64.031 E51.22400
G1 X64.031 Y39.333 E52.20031
G1 X63.332 Y39.333 E52.21984
G1 X39.333 Y63.332 E53.16854
G1 X39.333 Y62.634 E53.18807
G1 X62.634 Y39.333 E54.10915
G1 X61.935 Y39.333 E54.12868
G1 X39.333 Y61.935 E55.02215
G1 X39.333 Y61.236 E55.04168
G1 X61.236 Y39.333 E55.90753
G1 X60.538 Y39.333 E55.92706
G1 X39.333 Y60.538 E56.76530
G1 X39.333 Y59.839 E56.78483
G1 X59.839 Y39.333 E57.59546
G1 X59.141 Y39.333 E57.61499
G1 X39.333 Y59.141 E58.39800
G1 X39.333 Y58.442 E58.41753
G1 X58.442 Y39.333 E59.17293
G1 X57.744 Y39.333 E59.19245
G1 X39.333 Y57.744 E59.92024
G1 X39.333 Y57.045 E59.93976
G1 X57.045 Y39.333 E60.63993
G1 X56.347 Y39.333 E60.65946
G1 X39.333 Y56.347 E61.33202
G1 X39.333 Y55.648 E61.35154
G1 X55.648 Y39.333 E61.99649
G1 X54.949 Y39.333 E62.01601
G1 X39.333 Y54.949 E62.63334
G1 X39.333 Y54.251 E62.65287
G1 X54.251 Y39.333 E63.24258
G1 X53.552 Y39.333 E63.26211
G1 X39.333 Y53.552 E63.82420
G1 X39.333 Y52.854 E63.84373
G1 X52.854 Y39.333 E64.37822
G1 X52.155 Y39.333 E64.39774
G1 X39.333 Y52.155 E64.90461
G1 X39.333 Y51.457 E64.92414
G1 X51.457 Y39.333 E65.40339
G1 X50.758 Y39.333 E65.42292
G1 X39.333 Y50.758 E65.87456
G1 X39.333 Y50.059 E65.89409
G1 X50.059 Y39.333 E66.31811
G1 X49.361 Y39.333 E66.33764
G1 X39.333 Y49.361 E66.73405
G1 X39.333 Y48.662 E66.75358
G1 X48.662 Y39.333 E67.12238
G1 X47.964 Y39.333 E67.14190
G1 X39.333 Y47.964 E67.48308
G1 X39.333 Y47.265 E67.50261
G1 X47.265 Y39.333 E67.81618
G1 X46.567 Y39.333 E67.83571
G1 X39.333 Y46.567 E68.12166
G1 X39.333 Y45.868 E68.14119
G1 X45.868 Y39.333 E68.39953
G1 X45.170 Y39.333 E68.41905
G1 X39.333 Y45.170 E68.64978
G1 X39.333 Y44.471 E68.66930
G1 X44.471 Y39.333 E68.87241
G1 X43.772 Y39.333 E68.89194
G1 X39.333 Y43.772 E69.06744
G1 X39.333 Y43.074 E69.08696
G1 X43.074 Y39.333 E69.23485
G1 X42.375 Y39.333 E69.25437
G1 X39.333 Y42.375 E69.37464
G1 X39.333 Y41.677 E69.39417
G1 X41.677 Y39.333 E69.48682
G1 X40.978 Y39.333 E69.50635
G1 X39.333 Y40.978 E69.57138
G1 X39.333 Y40.280 E69.59091
G1 X40.280 Y39.333 E69.62833
G1 X39.581 Y39.333 E69.64786
G1 X39.333 Y39.581 E69.65767
G1 Z1.300 F7800.000
G1 E67.65767 F2400.00000
G92 E0
G1 X70.760 Y70.760 F7800.000
G1 E2.00000 F2400.00000
G1 X39.240 Y70.760 E2.87557 F3600.000
G1 X39.240 Y39.240 E3.75114
G1 X70.760 Y39.240 E4.62670
G1 X70.760 Y70.685 E5.50019
G1 X71.251 Y71.251 F7800.000
G1 X38.749 Y71.251 E6.40303 F3600.000
G1 X38.749 Y38.749 E7.30586
G1 X71.251 Y38.749 E8.20870
G1 X71.251 Y71.176 E9.10946
G1 X71.704 Y71.704 F7800.000
G1 X38.296 Y71.704 E9.89241 F1800.000
G1 X38.296 Y38.296 E10.67536
G1 X71.704 Y38.296 E11.45831
G1 X71.704 Y71.629 E12.23951
G1 X71.271 Y71.454 F7800.000
G1 E10.23951 F2400.00000
G92 E0
G1 X70.467 Y39.781 F7800.000
G1 E2.00000 F2400.00000
G1 X70.219 Y39.533 E2.00980 F1200.000
G1 X69.521 Y39.533 E2.02926
G1 X70.467 Y40.479 E2.06658
G1 X70.467 Y41.176 E2.08604
G1 X68.824 Y39.533 E2.15089
G1 X68.127 Y39.533 E2.17035
G1 X70.467 Y41.873 E2.26272
G1 X70.467 Y42.571 E2.28218
G1 X67.429 Y39.533 E2.40207
G1 X66.732 Y39.533 E2.42153
G1 X70.467 Y43.268 E2.56895
G1 X70.467 Y43.966 E2.58841
G1 X66.034 Y39.533 E2.76335
G1 X65.337 Y39.533 E2.78281
G1 X70.467 Y44.663 E2.98528
G1 X70.467 Y45.360 E3.00474
G1 X64.640 Y39.533 E3.23472
G1 X63.942 Y39.533 E3.25419
G1 X70.467 Y46.058 E3.51169
G1 X70.467 Y46.755 E3.53116
G1 X63.245 Y39.533 E3.81619
G1 X62.547 Y39.533 E3.83565
G1 X70.467 Y47.453 E4.14821
G1 X70.467 Y48.150 E4.16767
G1 X61.850 Y39.533 E4.50775
G1 X61.153 Y39.533 E4.52721
G1 X70.467 Y48.847 E4.89482
G1 X70.467 Y49.545 E4.91428
G1 X60.455 Y39.533 E5.30941
G1 X59.758 Y39.533 E5.32887
G1 X70.467 Y50.242 E5.75152
G1 X70.467 Y50.940 E5.77098
G1 X59.060 Y39.533 E6.22115
G1 X58.363 Y39.533 E6.24062
G1 X70.467 Y51.637 E6.71831
G1 X70.467 Y52.335 E6.73778
G1 X57.665 Y39.533 E7.24300
G1 X56.968 Y39.533 E7.26246
G1 X70.467 Y53.032 E7.79520
G1 X70.467 Y53.729 E7.81467
G1 X56.271 Y39.533 E8.37494
G1 X55.573 Y39.533 E8.39440
G1 X70.467 Y54.427 E8.98219
G1 X70.467 Y55.124 E9.00165
G1 X54.876 Y39.533 E9.61697
G1 X54.178 Y39.533 E9.63643
G1 X70.467 Y55.822 E10.27927
G1 X70.467 Y56.519 E10.29873
G1 X53.481 Y39.533 E10.96909
G1 X52.784 Y39.533 E10.98855
G1 X70.467 Y57.216 E11.68644
G1 X70.467 Y57.914 E11.70590
G1 X52.086 Y39.533 E12.43131
G1 X51.389 Y39.533 E12.45077
G1 X70.467 Y58.611 E13.20371
G1 X70.467 Y59.309 E13.22317
G1 X50.691 Y39.533 E14.00363
G1 X49.994 Y39.533 E14.02309
G1 X70.467 Y60.006 E14.83107
G1 X70.467 Y60.703 E14.85053
G1 X49.297 Y39.533 E15.68603
G1 X48.599 Y39.533 E15.70550
G1 X70.467 Y61.401 E16.56852
G1 X70.467 Y62.098 E16.58799
G1 X47.902 Y39.533 E17.47854
G1 X47.204 Y39.533 E17.49800
G1 X70.467 Y62.796 E18.41607
G1 X70.467 Y63.493 E18.43553
G1 X46.507 Y39.533 E19.38113
G1 X45.810 Y39.533 E19.40059
G1 X70.467 Y64.190 E20.37372
G1 X70.467 Y64.888 E20.39318
G1 X45.112 Y39.533 E21.39382
G1 X44.415 Y39.533 E21.41328
G1 X70.467 Y65.585 E22.44145
G1 X70.467 Y66.283 E22.46092
G1 X43.717 Y39.533 E23.51661
G1 X43.020 Y39.533 E23.53607
G1 X70.467 Y66.980 E24.61928
G1 X70.467 Y67.678 E24.63875
G1 X42.322 Y39.533 E25.74949
G1 X41.625 Y39.533 E25.76895
G1 X70.467 Y68.375 E26.90721
G1 X70.467 Y69.072 E26.92667
G1 X40.928 Y39.533 E28.09246
G1 X40.230 Y39.533 E28.11192
G1 X70.467 Y69.770 E29.30523
G1 X70.447 Y70.447 E29.32414
G1 X39.553 Y39.553 E30.54339
G1 X39.533 Y40.230 E30.56231
G1 X69.770 Y70.467 E31.75561
G1 X69.072 Y70.467 E31.77507
G1 X39.533 Y40.928 E32.94086
G1 X39.533 Y41.625 E32.96032
G1 X68.375 Y70.467 E34.09858
G1 X67.677 Y70.467 E34.11804
G1 X39.533 Y42.323 E35.22877
G1 X39.533 Y43.020 E35.24824
G1 X66.980 Y70.467 E36.33145
G1 X66.283 Y70.467 E36.35091
G1 X39.533 Y43.717 E37.40660
G1 X39.533 Y44.415 E37.42606
G1 X65.585 Y70.467 E38.45422
G1 X64.888 Y70.467 E38.47369
G1 X39.533 Y45.112 E39.47433
G1 X39.533 Y45.810 E39.49379
G1 X64.190 Y70.467 E40.46691
G1 X63.493 Y70.467 E40.48637
G1 X39.533 Y46.507 E41.43196
G1 X39.533 Y47.204 E41.45142
G1 X62.796 Y70.467 E42.36949
G1 X62.098 Y70.467 E42.38896
G1 X39.533 Y47.902 E43.27950
G1 X39.533 Y48.599 E43.29896
G1 X61.401 Y70.467 E44.16199
G1 X60.703 Y70.467 E44.18145
G1 X39.533 Y49.297 E45.01695
G1 X39.533 Y49.994 E45.03641
G1 X60.006 Y70.467 E45.84439
G1 X59.309 Y70.467 E45.86385
G1 X39.533 Y50.691 E46.64430
G1 X39.533 Y51.389 E46.66376
G1 X58.611 Y70.467 E47.41669
G1 X57.914 Y70.467 E47.43616
G1 X39.533 Y52.086 E48.16156
G1 X39.533 Y52.784 E48.18102
G1 X57.216 Y70.467 E48.87890
G1 X56.519 Y70.467 E48.89837
G1 X39.533 Y53.481 E49.56872
G1 X39.533 Y54.179 E49.58819
G1 X55.821 Y70.467 E50.23102
G1 X55.124 Y70.467 E50.25048
G1 X39.533 Y54.876 E50.86580
G1 X39.533 Y55.573 E50.88526
G1 X54.427 Y70.467 E51.47304
G1 X53.729 Y70.467 E51.49251
G1 X39.533 Y56.271 E52.05277
G1 X39.533 Y56.968 E52.07223
G1 X53.032 Y70.467 E52.60497
G1 X52.334 Y70.467 E52.62444
G1 X39.533 Y57.666 E53.12965
G1 X39.533 Y58.363 E53.14912
G1 X51.637 Y70.467 E53.62681
G1 X50.940 Y70.467 E53.64627
G1 X39.533 Y59.060 E54.09644
G1 X39.533 Y59.758 E54.11590
G1 X50.242 Y70.467 E54.53855
G1 X49.545 Y70.467 E54.55801
G1 X39.533 Y60.455 E54.95313
G1 X39.533 Y61.153 E54.97260
G1 X48.847 Y70.467 E55.34020
G1 X48.150 Y70.467 E55.35966
G1 X39.533 Y61.850 E55.69973
G1 X39.533 Y62.547 E55.71920
G1 X47.453 Y70.467 E56.03175
G1 X46.755 Y70.467 E56.05121
G1 X39.533 Y63.245 E56.33624
G1 X39.533 Y63.942 E56.35570
G1 X46.058 Y70.467 E56.61321
G1 X45.360 Y70.467 E56.63267
G1 X39.533 Y64.640 E56.86265
G1 X39.533 Y65.337 E56.88211
G1 X44.663 Y70.467 E57.08457
G1 X43.965 Y70.467 E57.10403
G1 X39.533 Y66.035 E57.27897
G1 X39.533 Y66.732 E57.29843
G1 X43.268 Y70.467 E57.44584
G1 X42.571 Y70.467 E57.46530
G1 X39.533 Y67.429 E57.58519
G1 X39.533 Y68.127 E57.60465
G1 X41.873 Y70.467 E57.69702
G1 X41.176 Y70.467 E57.71648
G1 X39.533 Y68.824 E57.78132
G1 X39.533 Y69.522 E57.80078
